icons/default_root_folder_opened.svg

<svg xmlns="http://www.w3.org/2000/svg" viewBox="0 0 32 32"><path d="M27.4 5.5h-9.2l-2.1 4.2H4.3v16.8h25.2v-21Zm0 18.7H6.6V11.8h20.8Zm0-14.5h-8.2l1-2.1h7.1v2.1Z" style="fill:#dcb67a"/><path d="M25.7 13.7H.5l3.8 12.8h25.2l-3.8-12.8z" style="fill:#dcb67a"/><path d="M19.635 31.25h-5.924l9.794-21.5h5.985l-9.855 21.5z" style="fill:#dcb67a"/><path d="M23.666 10H29.1l-9.625 21H14.1Z" style="fill:#ffeebe"/></svg>

<svg xmlns="http://www.w3.org/2000/svg" viewBox="0 0 32 32"><title>default_root_folder_opened</title><path d="M27.4,5.5H18.2L16.1,9.7H4.3V26.5H29.5V5.5Zm0,18.7H6.6V11.8H27.4Zm0-14.5H19.2l1-2.1h7.1V9.7Z" style="fill:#dcb67a"/><polygon points="25.7 13.7 0.5 13.7 4.3 26.5 29.5 26.5 25.7 13.7" style="fill:#dcb67a"/><polygon points="19.635 31.25 13.711 31.25 23.505 9.75 29.49 9.75 19.635 31.25" style="fill:#dcb67a"/><path d="M23.666,10H29.1L19.475,31H14.1Z" style="fill:#ffeebe"/></svg>
